src/resources/assets/check-checked.svg

<svg xmlns="http://www.w3.org/2000/svg" width="16" height="16"><path d="M 3 4.5 C 3 3.671875 3.671875 3 4.5 3 L 11.5 3 C 12.328125 3 13 3.671875 13 4.5 L 13 11.5 C 13 12.328125 12.328125 13 11.5 13 L 4.5 13 C 3.671875 13 3 12.328125 3 11.5 Z M 10.855469 6.855469 C 11.046875 6.660156 11.046875 6.339844 10.855469 6.144531 C 10.660156 5.953125 10.339844 5.953125 10.144531 6.144531 L 7 9.292969 L 5.855469 8.144531 C 5.660156 7.953125 5.339844 7.953125 5.144531 8.144531 C 4.953125 8.339844 4.953125 8.660156 5.144531 8.855469 L 6.644531 10.355469 C 6.839844 10.546875 7.160156 10.546875 7.355469 10.355469 Z M 10.855469 6.855469" fill="#ddd"/></svg>

<svg xmlns="http://www.w3.org/2000/svg" width="16" height="16"><path d="M3 4.5A1.5 1.5 0 014.5 3h7A1.5 1.5 0 0113 4.5v7a1.5 1.5 0 01-1.5 1.5h-7A1.5 1.5 0 013 11.5zm7.855 2.355a.512.512 0 000-.71.512.512 0 00-.71 0L7 9.293 5.855 8.145a.512.512 0 00-.71 0 .512.512 0 000 .71l1.5 1.5a.512.512 0 00.71 0zm0 0" fill="#ddd"/></svg>
